X:13
T:Yr Eneth Gadd ei Gwrthod
T:The Rejected Maiden
M:3/4
L:1/4
K:G
D | G2 G | A2 A | B d2 | c2 A |G B2 | A2 B | A (G2 | G2) D | G2 G |A2 A | B d2 | c2 A | G B2 | A2 B |A (G2 | G2) d | d2 B | G G A | G2 E |D2 d | d2 B | G2 B | B (A2 | A2) D|G2 G | A2 A | B d2 | c2 A |G B2 | A2 B | A (G2 | G2) ||
